public/whiskey.svg

<svg fill="none" height="64" viewBox="0 0 64 64" width="64" xmlns="http://www.w3.org/2000/svg"><path d="m29.1234 7.11043c-.0658-.59237.3979-1.11043.9939-1.11043h3.7654c.596 0 1.0597.51807.9939 1.11043l-.6349 5.71427c-.0563.5065-.4843.8896-.9939.8896h-2.4956c-.5096 0-.9376-.3831-.9939-.8896z" fill="#62534d"/><path d="m19 29.6671c0-2.5557 1.2211-4.9577 3.2861-6.4636l4.3152-3.1471c.8925-.6509 1.4761-1.6418 1.6125-2.7379l.6771-5.442c.0623-.5007.4878-.8765.9924-.8765h4.2334c.5046 0 .9301.3758.9924.8765l.6771 5.442c.1364 1.0961.72 2.087 1.6125 2.7379l4.3152 3.1471c2.065 1.5059 3.2861 3.9079 3.2861 6.4636v26.3329c0 1.1046-.8954 2-2 2h-22c-1.1046 0-2-.8954-2-2z" fill="#dfd0ca"/><path d="m19 32h23v18h-23z" fill="#7b4a36"/></svg>

<svg width="64" height="64" viewBox="0 0 64 64" fill="none" xmlns="http://www.w3.org/2000/svg">
<rect width="64" height="64" fill="white"/>
<path d="M29.1234 7.11043C29.0576 6.51806 29.5213 6 30.1173 6H33.8827C34.4787 6 34.9424 6.51807 34.8766 7.11043L34.2417 12.8247C34.1854 13.3312 33.7574 13.7143 33.2478 13.7143H30.7522C30.2426 13.7143 29.8146 13.3312 29.7583 12.8247L29.1234 7.11043Z" fill="#62534D"/>
<path d="M19 29.6671C19 27.1114 20.2211 24.7094 22.2861 23.2035L26.6013 20.0564C27.4938 19.4055 28.0774 18.4146 28.2138 17.3185L28.8909 11.8765C28.9532 11.3758 29.3787 11 29.8833 11H34.1167C34.6213 11 35.0468 11.3758 35.1091 11.8765L35.7862 17.3185C35.9226 18.4146 36.5062 19.4055 37.3987 20.0564L41.7139 23.2035C43.7789 24.7094 45 27.1114 45 29.6671V56C45 57.1046 44.1046 58 43 58H21C19.8954 58 19 57.1046 19 56V29.6671Z" fill="#DFD0CA"/>
<rect x="19" y="32" width="23" height="18" fill="#7B4A36"/>
</svg>
